X: 18
T: the Cock o' the North
O: 1667
R: jig
Z: 1997 by John Chambers <jc:trillian.mit.edu>
N: Earliest known reference: 1667 Samuel Pepys' diary mentions "Joan's Placket", one of the early titles.
N: Titled "Jumping John/Joan" in several 17th-century collections.
N: Often called "Auntie Mary" in Ireland and New England, a song title with obscene lyrics.
B: Playford 1674, 1686, as "Jumping Joan".
M: 6/8
L: 1/8
K: G
dc \
|: "G"BcB BAG | GBd "C"e2c | "G"BcB "(Em)"BAG | "F"ABA "D7"Adc \
|  "G"BcB BAG | GBd "C"e2c | "G"BGB "F"A=FA | "G"GAG G3 :|
[| "G"{def}g2d "C"e2d | "G"g2d "C"e2d | "G"BcB BAG | "F"ABA "D7"A2e/f/ \
|  "G"g2d "C"e2d | "G"g2d "C"e2d | "G"BcB "F"A=FA | "G"GAG G3 ||
|| "G"{def}g2d "C"e2d | "G"g2d "C"e2d | "G"BcB BAG | "F"ABA "D7"Adc \
|  "G"BcB BAG | GBd "C"e2c | "G"BGB "F"A=FA | "G"GAG G3 |]

%%sep 1 1 500

